build/img/icon/advantages-8.svg

<svg xmlns="http://www.w3.org/2000/svg" width="512" height="512" fill="none"><g clip-path="url(#clip0)" fill="#2A47B6"><path d="M303.274 74.86h28.86c4.143 0 7.5-3.357 7.5-7.5s-3.357-7.5-7.5-7.5h-21.36V44.93h21.36c4.143 0 7.5-3.357 7.5-7.5s-3.357-7.5-7.5-7.5h-21.36V15h21.36c4.143 0 7.5-3.357 7.5-7.5s-3.357-7.5-7.5-7.5h-28.86a7.499 7.499 0 00-7.5 7.5v59.86a7.5 7.5 0 007.5 7.5zM244.53 15h7.43v52.36c0 4.143 3.357 7.5 7.5 7.5s7.5-3.357 7.5-7.5V15h7.431c4.143 0 7.5-3.357 7.5-7.5s-3.357-7.5-7.5-7.5h-29.86a7.499 7.499 0 00-7.5 7.5c0 4.143 3.357 7.5 7.499 7.5zm-57.853 59.86h29.86c4.143 0 7.5-3.357 7.5-7.5V7.5c0-4.143-3.357-7.5-7.5-7.5h-29.86a7.499 7.499 0 00-7.5 7.5v59.86c0 4.143 3.357 7.5 7.5 7.5zm7.5-59.86h14.86v44.86h-14.86V15z"/><path d="M429.72 467.048h-31.085V133.787c11.689-3.273 20.284-14.001 20.284-26.695 0-9.501-7.743-17.231-17.261-17.231h-3.023v-22.5c0-4.143-3.357-7.5-7.5-7.5h-21.36V7.5c0-4.143-3.357-7.5-7.5-7.5a7.499 7.499 0 00-7.5 7.5v59.86c0 4.143 3.357 7.5 7.5 7.5h21.36v15H134.177V44.93h14.86v22.43c0 4.143 3.357 7.5 7.5 7.5s7.5-3.357 7.5-7.5V7.5c0-4.143-3.357-7.5-7.5-7.5a7.499 7.499 0 00-7.5 7.5v22.431h-14.86V7.5c0-4.143-3.357-7.5-7.5-7.5a7.499 7.499 0 00-7.5 7.5v82.36h-3.023c-9.518 0-17.261 7.73-17.261 17.231 0 12.694 8.595 23.422 20.284 26.695v333.261H82.28c-9.528 0-17.28 7.73-17.28 17.231C65 499.564 77.481 512 92.824 512h326.352C434.519 512 447 499.564 447 484.279c0-9.501-7.752-17.231-17.28-17.231zM419.176 497H92.824C85.753 497 80 491.294 80 484.279c0-1.23 1.022-2.231 2.28-2.231h241.642c4.143 0 7.5-3.357 7.5-7.5s-3.357-7.5-7.5-7.5h-37.517V337.316c0-4.143-3.357-7.5-7.5-7.5h-40a7.499 7.499 0 00-7.5 7.5v129.731h-97.229V134.919h27.376c4.143 0 7.5-3.357 7.5-7.5s-3.357-7.5-7.5-7.5h-34.876v-.105c-7.049 0-12.784-5.707-12.784-12.722 0-1.23 1.015-2.231 2.261-2.231h285.505c1.247 0 2.261 1.001 2.261 2.231 0 7.015-5.735 12.722-12.784 12.722v.105H196.692a7.499 7.499 0 00-7.5 7.5c0 4.143 3.357 7.5 7.5 7.5h186.942v332.129H358.89a7.499 7.499 0 00-7.5 7.5c0 4.143 3.357 7.5 7.5 7.5h70.83c1.258 0 2.28 1.001 2.28 2.231 0 7.015-5.753 12.721-12.824 12.721zM271.405 359.816h-25v-15h25v15zm-25 15h25v92.231h-25v-92.231z"/><path d="M196.692 150.043h-40a7.499 7.499 0 00-7.5 7.5v60c0 4.143 3.357 7.5 7.5 7.5h40c4.143 0 7.5-3.357 7.5-7.5v-60c0-4.143-3.357-7.5-7.5-7.5zm-7.5 15v15h-25v-15h25zm-25 45v-15h25v15h-25zm32.5 29.837h-40a7.499 7.499 0 00-7.5 7.5v60c0 4.143 3.357 7.5 7.5 7.5h40c4.143 0 7.5-3.357 7.5-7.5v-60c0-4.143-3.357-7.5-7.5-7.5zm-7.5 15v15h-25v-15h25zm-25 45v-15h25v15h-25zm32.5 29.936h-40a7.499 7.499 0 00-7.5 7.5v91.782c0 4.143 3.357 7.5 7.5 7.5h40c4.143 0 7.5-3.357 7.5-7.5v-91.782a7.5 7.5 0 00-7.5-7.5zm-7.5 15v15h-25v-15h25zm-25 76.783v-46.782h25v46.782h-25zm114.713-271.556h-40a7.499 7.499 0 00-7.5 7.5v60c0 4.143 3.357 7.5 7.5 7.5h40c4.143 0 7.5-3.357 7.5-7.5v-60c0-4.143-3.357-7.5-7.5-7.5zm-7.5 15v15h-25v-15h25zm-25 45v-15h25v15h-25zm32.5 29.837h-40a7.499 7.499 0 00-7.5 7.5v60c0 4.143 3.357 7.5 7.5 7.5h40c4.143 0 7.5-3.357 7.5-7.5v-60c0-4.143-3.357-7.5-7.5-7.5zm-7.5 15v15h-25v-15h25zm-25 45v-15h25v15h-25zm75-74.837h40c4.143 0 7.5-3.357 7.5-7.5v-60c0-4.143-3.357-7.5-7.5-7.5h-40a7.499 7.499 0 00-7.5 7.5v60a7.5 7.5 0 007.5 7.5zm7.5-15v-15h25v15h-25zm25-45v15h-25v-15h25zm-32.5 149.837h40c4.143 0 7.5-3.357 7.5-7.5v-60c0-4.143-3.357-7.5-7.5-7.5h-40a7.499 7.499 0 00-7.5 7.5v60a7.5 7.5 0 007.5 7.5zm7.5-15v-15h25v15h-25zm25-45v15h-25v-15h25zm15 174.219v-91.782c0-4.143-3.357-7.5-7.5-7.5h-40a7.499 7.499 0 00-7.5 7.5v91.782c0 4.143 3.357 7.5 7.5 7.5h40a7.5 7.5 0 007.5-7.5zm-15-84.283v15h-25v-15h25zm-25 76.783v-46.782h25v46.782h-25z"/></g><defs><clipPath id="clip0"><path fill="#fff" d="M0 0h512v512H0z"/></clipPath></defs></svg>

<?xml version="1.0" encoding="UTF-8"?> <svg xmlns="http://www.w3.org/2000/svg" width="512" height="512" viewBox="0 0 512 512" fill="none"> <g clip-path="url(#clip0)"> <path d="M303.274 74.86H332.134C336.277 74.86 339.634 71.503 339.634 67.36C339.634 63.217 336.277 59.86 332.134 59.86H310.774V44.93H332.134C336.277 44.93 339.634 41.573 339.634 37.43C339.634 33.287 336.277 29.93 332.134 29.93H310.774V15H332.134C336.277 15 339.634 11.643 339.634 7.5C339.634 3.357 336.277 0 332.134 0H303.274C299.131 0 295.774 3.357 295.774 7.5V67.36C295.774 71.503 299.132 74.86 303.274 74.86Z" fill="#2A47B6"></path> <path d="M244.53 15H251.96V67.36C251.96 71.503 255.317 74.86 259.46 74.86C263.603 74.86 266.96 71.503 266.96 67.36V15H274.391C278.534 15 281.891 11.643 281.891 7.5C281.891 3.357 278.534 0 274.391 0H244.531C240.388 0 237.031 3.357 237.031 7.5C237.031 11.643 240.388 15 244.53 15Z" fill="#2A47B6"></path> <path d="M186.677 74.86H216.537C220.68 74.86 224.037 71.503 224.037 67.36V7.5C224.037 3.357 220.68 0 216.537 0H186.677C182.534 0 179.177 3.357 179.177 7.5V67.36C179.177 71.503 182.534 74.86 186.677 74.86V74.86ZM194.177 15H209.037V59.86H194.177V15Z" fill="#2A47B6"></path> <path d="M429.72 467.048H398.635V133.787C410.324 130.514 418.919 119.786 418.919 107.092C418.919 97.591 411.176 89.861 401.658 89.861H398.635V67.361C398.635 63.218 395.278 59.861 391.135 59.861H369.775V7.5C369.775 3.357 366.418 0 362.275 0C358.132 0 354.775 3.357 354.775 7.5V67.36C354.775 71.503 358.132 74.86 362.275 74.86H383.635V89.86H134.177V44.93H149.037V67.36C149.037 71.503 152.394 74.86 156.537 74.86C160.68 74.86 164.037 71.503 164.037 67.36V7.5C164.037 3.357 160.68 0 156.537 0C152.394 0 149.037 3.357 149.037 7.5V29.931H134.177V7.5C134.177 3.357 130.82 0 126.677 0C122.534 0 119.177 3.357 119.177 7.5V89.86H116.154C106.636 89.86 98.893 97.59 98.893 107.091C98.893 119.785 107.488 130.513 119.177 133.786V467.047H82.28C72.752 467.047 65 474.777 65 484.278C65 499.564 77.481 512 92.824 512H419.176C434.519 512 447 499.564 447 484.279C447 474.778 439.248 467.048 429.72 467.048V467.048ZM419.176 497H92.824C85.753 497 80 491.294 80 484.279C80 483.049 81.022 482.048 82.28 482.048H323.922C328.065 482.048 331.422 478.691 331.422 474.548C331.422 470.405 328.065 467.048 323.922 467.048H286.405V337.316C286.405 333.173 283.048 329.816 278.905 329.816H238.905C234.762 329.816 231.405 333.173 231.405 337.316V467.047H134.176V134.919H161.552C165.695 134.919 169.052 131.562 169.052 127.419C169.052 123.276 165.695 119.919 161.552 119.919H126.676V119.814C119.627 119.814 113.892 114.107 113.892 107.092C113.892 105.862 114.907 104.861 116.153 104.861H401.658C402.905 104.861 403.919 105.862 403.919 107.092C403.919 114.107 398.184 119.814 391.135 119.814V119.919H196.692C192.549 119.919 189.192 123.276 189.192 127.419C189.192 131.562 192.549 134.919 196.692 134.919H383.634V467.048H358.89C354.747 467.048 351.39 470.405 351.39 474.548C351.39 478.691 354.747 482.048 358.89 482.048H429.72C430.978 482.048 432 483.049 432 484.279C432 491.294 426.247 497 419.176 497V497ZM271.405 359.816H246.405V344.816H271.405V359.816ZM246.405 374.816H271.405V467.047H246.405V374.816Z" fill="#2A47B6"></path> <path d="M196.692 150.043H156.692C152.549 150.043 149.192 153.4 149.192 157.543V217.543C149.192 221.686 152.549 225.043 156.692 225.043H196.692C200.835 225.043 204.192 221.686 204.192 217.543V157.543C204.192 153.4 200.835 150.043 196.692 150.043ZM189.192 165.043V180.043H164.192V165.043H189.192ZM164.192 210.043V195.043H189.192V210.043H164.192Z" fill="#2A47B6"></path> <path d="M196.692 239.88H156.692C152.549 239.88 149.192 243.237 149.192 247.38V307.38C149.192 311.523 152.549 314.88 156.692 314.88H196.692C200.835 314.88 204.192 311.523 204.192 307.38V247.38C204.192 243.237 200.835 239.88 196.692 239.88ZM189.192 254.88V269.88H164.192V254.88H189.192ZM164.192 299.88V284.88H189.192V299.88H164.192Z" fill="#2A47B6"></path> <path d="M196.692 329.816H156.692C152.549 329.816 149.192 333.173 149.192 337.316V429.098C149.192 433.241 152.549 436.598 156.692 436.598H196.692C200.835 436.598 204.192 433.241 204.192 429.098V337.316C204.192 333.174 200.835 329.816 196.692 329.816ZM189.192 344.816V359.816H164.192V344.816H189.192ZM164.192 421.599V374.817H189.192V421.599H164.192Z" fill="#2A47B6"></path> <path d="M278.905 150.043H238.905C234.762 150.043 231.405 153.4 231.405 157.543V217.543C231.405 221.686 234.762 225.043 238.905 225.043H278.905C283.048 225.043 286.405 221.686 286.405 217.543V157.543C286.405 153.4 283.048 150.043 278.905 150.043ZM271.405 165.043V180.043H246.405V165.043H271.405ZM246.405 210.043V195.043H271.405V210.043H246.405Z" fill="#2A47B6"></path> <path d="M278.905 239.88H238.905C234.762 239.88 231.405 243.237 231.405 247.38V307.38C231.405 311.523 234.762 314.88 238.905 314.88H278.905C283.048 314.88 286.405 311.523 286.405 307.38V247.38C286.405 243.237 283.048 239.88 278.905 239.88ZM271.405 254.88V269.88H246.405V254.88H271.405ZM246.405 299.88V284.88H271.405V299.88H246.405Z" fill="#2A47B6"></path> <path d="M321.405 225.043H361.405C365.548 225.043 368.905 221.686 368.905 217.543V157.543C368.905 153.4 365.548 150.043 361.405 150.043H321.405C317.262 150.043 313.905 153.4 313.905 157.543V217.543C313.905 221.686 317.263 225.043 321.405 225.043ZM328.905 210.043V195.043H353.905V210.043H328.905ZM353.905 165.043V180.043H328.905V165.043H353.905Z" fill="#2A47B6"></path> <path d="M321.405 314.88H361.405C365.548 314.88 368.905 311.523 368.905 307.38V247.38C368.905 243.237 365.548 239.88 361.405 239.88H321.405C317.262 239.88 313.905 243.237 313.905 247.38V307.38C313.905 311.522 317.263 314.88 321.405 314.88ZM328.905 299.88V284.88H353.905V299.88H328.905ZM353.905 254.88V269.88H328.905V254.88H353.905Z" fill="#2A47B6"></path> <path d="M368.905 429.099V337.317C368.905 333.174 365.548 329.817 361.405 329.817H321.405C317.262 329.817 313.905 333.174 313.905 337.317V429.099C313.905 433.242 317.262 436.599 321.405 436.599H361.405C365.548 436.599 368.905 433.241 368.905 429.099ZM353.905 344.816V359.816H328.905V344.816H353.905ZM328.905 421.599V374.817H353.905V421.599H328.905Z" fill="#2A47B6"></path> </g> <defs> <clipPath id="clip0"> <rect width="512" height="512" fill="white"></rect> </clipPath> </defs> </svg>
